healthcode/ykm/static/27597bf024b2ecbf42295c976b1eca16.svg

<svg viewBox="0 0 37 29" xmlns="http://www.w3.org/2000/svg"><path d="m17.6583101 29c.5725782 0 1.0449551-.1840174 1.4171309-.5520523s.5582637-.8395797.5582637-1.4146342v-24.98036882c0-.56355344-.1860879-1.04659925-.5582637-1.44913742s-.8502785-.60380726-1.4343082-.60380726c-.4008047 0-.761529.09200873-1.0821727.27602618-.3206438.18401745-.6985454.4830458-1.1337048.89708506l-6.87093775 6.45211184c-.09161251.09200873-.22330548.13801309-.39507892.13801309h-4.62070567c-1.1451563 0-2.02120086.31627999-2.6281337.94883998-.60693284.63255998-.91039926 1.55839775-.91039926 2.77751335v6.0725759c0 1.2306167.30346642 2.1564545.91039926 2.7775134s1.4829774.9315883 2.6281337.9315883h4.62070567c.17177344 0 .30346641.0517549.39507892.1552647l6.87093775 6.5211184c.3893532.3680349.7586661.6354353 1.1079388.8022011.3492726.1667658.7243113.2501487 1.125116.2501487zm15.0902971-2.8723974c.3721758-.0747571.6727794-.284652.9018106-.6296847 1.0535438-1.4721396 1.8751935-3.1656752 2.464949-5.0806068s.8846332-3.8902439.8846332-5.9259369c0-2.0356931-.2920149-4.0167559-.8760446-5.9431886-.5840297-1.92643268-1.4085422-3.61421772-2.4735376-5.06335514-.2290312-.34503272-.5296348-.5578029-.9018106-.63831053-.3721758-.08050764-.7243113-.00575055-1.0564066.22427127-.3435469.23002181-.5382235.53767598-.5840298.92296252-.0458062.38528653.0572579.77344834.3091922 1.16448542.8817704 1.25361888 1.5631384 2.69125521 2.044104 4.31290899.4809657 1.62165377.7214485 3.29506247.7214485 5.02022607s-.2433457 3.395697-.7300371 5.0116002c-.4866915 1.6159033-1.1651966 3.0564149-2.0355154 4.3215348-.2519343.3910371-.3549984.7791989-.3091922 1.1644854.0458063.3852866.2404829.6929408.5840298.9229626.3320953.2185207.6842308.2904025 1.0564066.2156454zm-6.2954967-4.312909c.36645-.0747571.6641906-.2789014.8932219-.612433.6527391-.8510807 1.1566079-1.8631767 1.5116063-3.036288.3549985-1.1731112.5324977-2.3979774.5324977-3.6745984 0-1.2766211-.1774992-2.498612-.5324977-3.6659727-.3549984-1.16736065-.8588672-2.18808244-1.5116063-3.06216533-.2290313-.32203054-.5267719-.52042435-.8932219-.59518144s-.7042711-.00287527-1.0134633.21564545c-.36645.25302399-.578304.58080507-.6355618.98334325-.0572578.40253817.0572578.79932579.3435469 1.19036288.4580625.65556219.813061 1.41175889 1.0649954 2.26859009.2519344.8568313.3779015 1.7452905.3779015 2.6653778 0 .9200872-.1259671 1.8056712-.3779015 2.6567519s-.6069329 1.6044022-1.0649954 2.2599643c-.2862891.4025382-.4008047.8050764-.3435469 1.2076145.0572578.4025382.2691118.7303193.6355618.9833433.3091922.2185207.6470133.2904025 1.0134633.2156454z" fill="#3888ff"/></svg>

<svg xmlns="http://www.w3.org/2000/svg" viewBox="0 0 37 29" class="design-iconfont">
  <path d="M17.6583101,29 C18.2308883,29 18.7032652,28.8159826 19.075441,28.4479477 C19.4476168,28.0799128 19.6337047,27.608368 19.6337047,27.0333135 L19.6337047,2.05294468 C19.6337047,1.48939124 19.4476168,1.00634543 19.075441,0.603807258 C18.7032652,0.201269086 18.2251625,0 17.6411328,0 C17.2403281,0 16.8796038,0.092008725 16.5589601,0.276026175 C16.2383163,0.460043625 15.8604147,0.759071981 15.4252553,1.17311124 L8.55431755,7.62522308 C8.46270504,7.71723181 8.33101207,7.76323617 8.15923863,7.76323617 L3.53853296,7.76323617 C2.39337666,7.76323617 1.5173321,8.07951616 0.910399257,8.71207615 C0.303466419,9.34463613 0,10.2704739 0,11.4895895 L0,17.5621654 C0,18.7927821 0.303466419,19.7186199 0.910399257,20.3396788 C1.5173321,20.9607377 2.39337666,21.2712671 3.53853296,21.2712671 L8.15923863,21.2712671 C8.33101207,21.2712671 8.46270504,21.323022 8.55431755,21.4265318 L15.4252553,27.9476502 C15.8146085,28.3156851 16.1839214,28.5830855 16.5331941,28.7498513 C16.8824667,28.9166171 17.2575054,29 17.6583101,29 Z M32.7486072,26.1276026 C33.120783,26.0528455 33.4213866,25.8429506 33.6504178,25.4979179 C34.7039616,24.0257783 35.5256113,22.3322427 36.1153668,20.4173111 C36.7051223,18.5023795 37,16.5270672 37,14.4913742 C37,12.4556811 36.7079851,10.4746183 36.1239554,8.5481856 C35.5399257,6.62175292 34.7154132,4.93396788 33.6504178,3.48483046 C33.4213866,3.13979774 33.120783,2.92702756 32.7486072,2.84651993 C32.3764314,2.76601229 32.0242959,2.84076938 31.6922006,3.0707912 C31.3486537,3.30081301 31.1539771,3.60846718 31.1081708,3.99375372 C31.0623646,4.37904025 31.1654287,4.76720206 31.417363,5.15823914 C32.2991334,6.41185802 32.9805014,7.84949435 33.461467,9.47114813 C33.9424327,11.0928019 34.1829155,12.7662106 34.1829155,14.4913742 C34.1829155,16.2165378 33.9395698,17.8870712 33.4528784,19.5029744 C32.9661869,21.1188777 32.2876818,22.5593893 31.417363,23.8245092 C31.1654287,24.2155463 31.0623646,24.6037081 31.1081708,24.9889946 C31.1539771,25.3742812 31.3486537,25.6819354 31.6922006,25.9119572 C32.0242959,26.1304779 32.3764314,26.2023597 32.7486072,26.1276026 Z M26.4531105,21.8146936 C26.8195605,21.7399365 27.1173011,21.5357922 27.3463324,21.2022606 C27.9990715,20.3511799 28.5029403,19.3390839 28.8579387,18.1659726 C29.2129372,16.9928614 29.3904364,15.7679952 29.3904364,14.4913742 C29.3904364,13.2147531 29.2129372,11.9927622 28.8579387,10.8254015 C28.5029403,9.65804085 27.9990715,8.63731906 27.3463324,7.76323617 C27.1173011,7.44120563 26.8195605,7.24281182 26.4531105,7.16805473 C26.0866605,7.09329764 25.7488394,7.16517946 25.4396472,7.38370018 C25.0731972,7.63672417 24.8613432,7.96450525 24.8040854,8.36704343 C24.7468276,8.7695816 24.8613432,9.16636922 25.1476323,9.55740631 C25.6056948,10.2129685 25.9606933,10.9691652 26.2126277,11.8259964 C26.4645621,12.6828277 26.5905292,13.5712869 26.5905292,14.4913742 C26.5905292,15.4114614 26.4645621,16.2970454 26.2126277,17.1481261 C25.9606933,17.9992068 25.6056948,18.7525283 25.1476323,19.4080904 C24.8613432,19.8106286 24.7468276,20.2131668 24.8040854,20.6157049 C24.8613432,21.0182431 25.0731972,21.3460242 25.4396472,21.5990482 C25.7488394,21.8175689 26.0866605,21.8894507 26.4531105,21.8146936 Z" fill="#3888FF" fill-rule="nonzero"/>
</svg>
